svgs/sharp-regular/car.svg

<svg xmlns="http://www.w3.org/2000/svg" viewBox="0 0 512 512"><!--! Font Awesome Pro 6.4.2 by @fontawesome - https://fontawesome.com License - https://fontawesome.com/license (Commercial License) Copyright 2023 Fonticons, Inc. --><path d="M120 32H102.7L97.2 48.4 54.7 176H48 0v48V352v48 80H48V400H464v80h48V400 352 224 176H464h-6.7L414.8 48.4 409.3 32H392 120zM406.7 176H105.3l32-96H374.7l32 96zM464 224V352H48V224H464zM144 288a32 32 0 1 0 -64 0 32 32 0 1 0 64 0zm256 32a32 32 0 1 0 0-64 32 32 0 1 0 0 64z"/></svg>

<svg xmlns="http://www.w3.org/2000/svg" viewBox="0 0 512 512"><!--! Font Awesome Pro 6.6.0 by @fontawesome - https://fontawesome.com License - https://fontawesome.com/license (Commercial License) Copyright 2024 Fonticons, Inc. --><path d="M120 32l-17.3 0L97.2 48.4 54.7 176 48 176 0 176l0 48L0 352l0 48 0 80 48 0 0-80 416 0 0 80 48 0 0-80 0-48 0-128 0-48-48 0-6.7 0L414.8 48.4 409.3 32 392 32 120 32zM406.7 176l-301.4 0 32-96 237.4 0 32 96zM464 224l0 128L48 352l0-128 416 0zM144 288a32 32 0 1 0 -64 0 32 32 0 1 0 64 0zm256 32a32 32 0 1 0 0-64 32 32 0 1 0 0 64z"/></svg>
